src/Brands/hostgator/icon.svg

<svg viewBox="286.707 87.344 58.03 58.13" xmlns="http://www.w3.org/2000/svg"><path d="m326.732 110.796c.835-7.745-1.459-12.42-3.574-13.135-2.084-.715-3.336 1.489-3.336 1.489-4.052-2.503-7.655-2.263-7.655-2.263s-2.234-5.629-6.643-5.451c-5.778.238-8.637 12.211-9.322 15.608-1.345.457-2.444 1.449-3.037 2.74-1.729 3.396-2.623 9.59 10.276 19.271 12.895 9.709 18.585 12.331 21.385 12.331 3.573 0 3.813-1.34 7.923-1.906 2.114-.298 3.693-3.931 1.43-7.028-2.292-3.1-7.745-6.852-7.745-6.852s3.634-.059 5.897-.358l.03.12c.117.302.247.599.388.893.239.535.328 1.191.507 1.789.059.296.147.535.298.743.088.208.296.358.536.418.595.059 1.131-.299 1.488-.776.386-.506.685-1.191.893-1.876.241-.898.4-1.815.478-2.74v-.119c1.399-.923 2.471-2.561 2.293-5.54-.239-3.516-4.111-5.361-7.745-4.2-1.786-2.89-4.765-3.158-4.765-3.158zm-4.08 6.911c1.192-.387 2.085 1.192.535 1.846-.209.596.12 1.191 1.073 1.43-2.979.596-3.098-2.74-1.608-3.276zm11.824 2.233c.775-.177 1.073-.714.893-1.19-1.279-.566-.536-1.849.419-1.551 1.22.449 1.102 3.247-1.312 2.741zm-29.904-21.981s4.081 1.936 6.79 10.425c0 0-6.433-1.042-9.262-.833 0 0 2.591-4.827 2.472-9.592zm1.399 7.15c0 1.37.805 2.501 1.788 2.501 1.012 0 1.847-1.131 1.847-2.501 0-1.371-.835-2.473-1.816-2.473-1.014 0-1.789 1.102-1.789 2.473zm12.987 3.989s1.668-5.451 4.825-6.969c0 0 .179 4.378.894 7.863 0 0-2.324-.536-5.719-.894zm2.264-1.608c0 1.072.595 1.906 1.371 1.906.773 0 1.369-.834 1.369-1.906 0-1.041-.596-1.907-1.369-1.907-.747 0-1.371.866-1.371 1.907zm4.705 18.11s-1.429 5.838-3.604 5.183c-.744-.208-.447-1.877-.744-2.979-.298-1.161-1.132-3.337-1.132-3.337zm10.873-1.787s-.447 5.568-2.741 5.301c-.744-.089-.715-1.787-1.192-2.859-.506-1.072-.415-.982-.415-.982 1.515-.261 2.981-.752 4.348-1.46z" fill="#fff"/></svg>

<svg viewBox="286.707 87.344 58.03 58.13" xmlns="http://www.w3.org/2000/svg">
  <path d="M 326.732 110.796 C 327.567 103.051 325.273 98.376 323.158 97.661 C 321.074 96.946 319.822 99.15 319.822 99.15 C 315.77 96.647 312.167 96.887 312.167 96.887 C 312.167 96.887 309.933 91.258 305.524 91.436 C 299.746 91.674 296.887 103.647 296.202 107.044 C 294.857 107.501 293.758 108.493 293.165 109.784 C 291.436 113.18 290.542 119.374 303.441 129.055 C 316.336 138.764 322.026 141.386 324.826 141.386 C 328.399 141.386 328.639 140.046 332.749 139.48 C 334.863 139.182 336.442 135.549 334.179 132.452 C 331.887 129.352 326.434 125.6 326.434 125.6 C 326.434 125.6 330.068 125.541 332.331 125.242 L 332.361 125.362 C 332.478 125.664 332.608 125.961 332.749 126.255 C 332.988 126.79 333.077 127.446 333.256 128.044 C 333.315 128.34 333.403 128.579 333.554 128.787 C 333.642 128.995 333.85 129.145 334.09 129.205 C 334.685 129.264 335.221 128.906 335.578 128.429 C 335.964 127.923 336.263 127.238 336.471 126.553 C 336.712 125.655 336.871 124.738 336.949 123.813 L 336.949 123.694 C 338.348 122.771 339.42 121.133 339.242 118.154 C 339.003 114.638 335.131 112.793 331.497 113.954 C 329.711 111.064 326.732 110.796 326.732 110.796 Z M 322.652 117.707 C 323.844 117.32 324.737 118.899 323.187 119.553 C 322.978 120.149 323.307 120.744 324.26 120.983 C 321.281 121.579 321.162 118.243 322.652 117.707 Z M 334.476 119.94 C 335.251 119.763 335.549 119.226 335.369 118.75 C 334.09 118.184 334.833 116.901 335.788 117.199 C 337.008 117.648 336.89 120.446 334.476 119.94 Z M 304.572 97.959 C 304.572 97.959 308.653 99.895 311.362 108.384 C 311.362 108.384 304.929 107.342 302.1 107.551 C 302.1 107.551 304.691 102.724 304.572 97.959 Z M 305.971 105.109 C 305.971 106.479 306.776 107.61 307.759 107.61 C 308.771 107.61 309.606 106.479 309.606 105.109 C 309.606 103.738 308.771 102.636 307.79 102.636 C 306.776 102.636 306.001 103.738 306.001 105.109 L 305.971 105.109 Z M 318.958 109.098 C 318.958 109.098 320.626 103.647 323.783 102.129 C 323.783 102.129 323.962 106.507 324.677 109.992 C 324.677 109.992 322.353 109.456 318.958 109.098 Z M 321.222 107.49 C 321.222 108.562 321.817 109.396 322.593 109.396 C 323.366 109.396 323.962 108.562 323.962 107.49 C 323.962 106.449 323.366 105.583 322.593 105.583 C 321.846 105.583 321.222 106.449 321.222 107.49 Z M 325.927 125.6 C 325.927 125.6 324.498 131.438 322.323 130.783 C 321.579 130.575 321.876 128.906 321.579 127.804 C 321.281 126.643 320.447 124.467 320.447 124.467 L 325.927 125.6 Z M 336.8 123.813 C 336.8 123.813 336.353 129.381 334.059 129.114 C 333.315 129.025 333.344 127.327 332.867 126.255 C 332.361 125.183 332.452 125.273 332.452 125.273 C 333.967 125.012 335.433 124.521 336.8 123.813 Z" style="fill: rgb(255, 255, 255);"/>
</svg>
